!!!OTL: Des Burschen Tracht (204b), S. 446
!!!id: T0388
**kern
*clefG2
*k[]
*G:
{16g
=1
16g
4g
16g
=2yy
16g
=3
4d
8d
=4
16e
16e
8e
8e
=5
4.d}
=6
{4cc
16cc
16cc
=7
4b
8b
=8
8a
8b
8a
=9
4.g}
=10
{8g
8g
8g
=11
16g
16g
8g
8b
=12
4.dd}
=13
{4cc
16cc
16cc
=14
4b
8b
=15
8a
8b
8a
=16
4.dd}
=17
{4cc
16cc
16cc
=18
4b
8b
=19
8a
8b
8a
=20
4.g}
==
*-
!!!minrhy: 16
!!!meters: 3/8 ]  ZZ[5
!!!cut: Des Burschen Tracht (204b), S. 446
!!!reg: Luxemburg
!!!trd: Singendes Volk, Esch-Alzette, 1937 posth.
!!!rhy1:   X__XX  X__X_  XXX_X_  X__.
!!!rhy2: X__XX  X__X_  X_X_X_  X__.
!!!key: T0388  16  G 3/8 ]  ZZ[5
!!!mod: SECHSTONSKALA DUR ?]  AMBITUS[8
!!!kad: -51551
!!!akz: 1-5-6-5_4321_115_4325_4321_
!!!fot: 'a__as"b__c__as"
!!!for: 'a__b__c__b__b__
!!!fok: '\__\__/__Va_\__
!! PHRAS[VOLLTAKTIG]
!!!fkt: Tanz-, Spiellied
!!!bem: Stegen, hhh Nikolaus Pletschette (Lehrer)
!! THILL; Mathias
!! PR[46] 2K[0] 2G[6] 3K[6] 3G[2] 4A[8] 4Ü[0] 5A[2] 6K[0] 6G[0]
!! 7K[0] 7G[0] 8A[0] MEHR[0] SI[24] ABS[50] SR[6] SP[18]
!! ST[21] 2k[4] 2g[14] 3k[4] 3g[2] 4d[6] 4ü[0] 5d[0] 6k[0] 6g[0]
!! 7k[0] 7g[0] 8d[0] mehr[0] si[30] dm[-6] sr[18] sp[12]
!! 1F[50] 2F[50] 3F[0] 4F[0] LF[0] 2P[0] 3P[0] 4P[0] TRI[0] DF[2] AB[56]
!! TF[0] U3K[0] U3[0] U4[0] U4Ü[0] U5[25] U6K[0] U6[2] U7K[0] U7[2]
!! N1[35] N2K[0] N2[18] N3K[0] N3[12] N4[2] N4Ü[0] N5[4] N6K[0] N6[0]
!!!n7k: 0] N7[0] O1[0] O2K[0] O2[0] O3K[0] O3[0] HÖ[0
